data/styles/clear/style-night/symbols/picnic_table-m.svg

<svg height="24" viewBox="0 0 24 24" width="24"><g fill="#fff" fill-rule="evenodd"><circle cx="12" cy="12" opacity=".1" r="12"/><path d="m8.60809123 8.81818182h-1.74142456v-1.81818182h10.26666663v1.81818182h-1.8473008l.8161041 3.63636368h2.8978634v.9090909h-2.6938374l.8331312 3.7122325-1.8196438-.0082914-.8312704-3.7039411h-5.06531939l-.78970305 3.579374-1.81964381.0082914.79153234-3.5876654h-2.60524569v-.9090909h2.8058148zm1.81781457 0-.80227648 3.63636368h4.66072428l-.8161041-3.63636368z" opacity=".6"/></g></svg>

<svg width="24" height="24" viewBox="0 0 24 24">
  <g fill="#FFF" fill-rule="evenodd">
    <circle cx="12" cy="12" r="12" opacity=".1"/>
    <path d="M8.60809123,8.81818182 L6.86666667,8.81818182 L6.86666667,7 L17.1333333,7 L17.1333333,8.81818182 L15.2860325,8.81818182 L16.1021366,12.4545455 L19,12.4545455 L19,13.3636364 L16.3061626,13.3636364 L17.1392938,17.0758689 L15.31965,17.0675775 L14.4883796,13.3636364 L9.42306021,13.3636364 L8.63335716,16.9430104 L6.81371335,16.9513018 L7.60524569,13.3636364 L5,13.3636364 L5,12.4545455 L7.8058148,12.4545455 L8.60809123,8.81818182 Z M10.4259058,8.81818182 L9.62362932,12.4545455 L14.2843536,12.4545455 L13.4682495,8.81818182 L10.4259058,8.81818182 Z" opacity=".6"/>
  </g>
</svg>
